svg/miner_worker_outline.svg

<?xml version="1.0" encoding="UTF-8" standalone="no"?>
<!-- Created with Inkscape (http://www.inkscape.org/) -->
<svg id="svg8" xmlns:rdf="http://www.w3.org/1999/02/22-rdf-syntax-ns#" xmlns="http://www.w3.org/2000/svg" xmlns:osb="http://www.openswatchbook.org/uri/2009/osb" height="48" width="48" version="1.1" xmlns:cc="http://creativecommons.org/ns#" viewBox="0 0 12.7 12.7" xmlns:dc="http://purl.org/dc/elements/1.1/">
 <title id="title4753">UIO-icon</title>
 <metadata id="metadata5">
  <rdf:RDF>
   <cc:Work rdf:about="">
    <dc:format>image/svg+xml</dc:format>
    <dc:type rdf:resource="http://purl.org/dc/dcmitype/StillImage"/>
    <dc:title>UIO-icon</dc:title>
    <dc:creator>
     <cc:Agent>
      <dc:title>Joaquín Urbano</dc:title>
     </cc:Agent>
    </dc:creator>
    <dc:rights>
     <cc:Agent>
      <dc:title>GPL</dc:title>
     </cc:Agent>
    </dc:rights>
   </cc:Work>
  </rdf:RDF>
 </metadata>
 <g id="layer1" transform="translate(0,-284.3)" fill="#333">
  <path id="path1933" d="m23.502 4.9316c-3.1373 0.003707-6.0165 1.7381-7.4863 4.5098h4.7285c0.24474-1.331 1.4045-2.2977 2.7578-2.2988 1.354 0.00014135 2.5149 0.96711 2.7598 2.2988h4.722c-1.469-2.7704-4.346-4.5046-7.482-4.5098zm0.046875 0.52148c0.89383-0.0030642 1.3816 0.10914 2.4062 0.38867 1.1776 0.42819 1.895 0.95036 2.6523 1.4648 0.55052 0.49946 1.1065 0.9961 1.4746 1.6172l-3.5 0.0039063c-0.069-0.3427-0.512-1.2136-1.029-1.6035-0.571-0.4953-1.435-0.711-2.198-0.6914-1.5303 0.1491-1.8906 0.70251-2.4121 1.2012-0.25645 0.32052-0.47585 0.67824-0.64258 1.0938l-3.375-0.0039063c0.574-0.6573 1.15-1.3086 1.774-1.8536 0.744-0.5002 1.448-1.0694 2.594-1.3008 0.852-0.2588 1.681-0.3054 2.256-0.3164zm-8.182 5.5779c-0.22063 0.74607-0.33762 1.5189-0.34766 2.2969h16.963c-0.01067-0.77804-0.12831-1.5509-0.34961-2.2969h-5.541c-0.43638 1.0446-1.4577 1.7248-2.5898 1.7246-1.1307-0.001429-2.1501-0.68127-2.5859-1.7246zm5.2266 0.50977c0.30941 0.62367 0.75742 0.95569 1.2148 1.2676h-6.2637c0.063124-0.42894 0.10563-0.87512 0.2168-1.2656zm5.8242 0.007813 4.832 0.001953c0.11117 0.39051 0.15172 0.83668 0.21484 1.2656l-6.2637-0.001953c0.45742-0.31189 0.90739-0.64195 1.2168-1.2656zm-13.457 2.135v1.2363h3.5762v4.955c0 2.0844 0.5155 4.1544 1.9922 5.084 2.09 1.3157 3.1271 2.1809 4.9668 2.2383 1.2599 0.00378 2.871-1.135 4.6094-2.2227 1.5631-0.97807 2.3613-3.0259 2.3613-5.0996-0.011339-1.6517-0.030245-3.3034-0.046875-4.9551h3.623v-1.2363zm4.0898 1.2363 12.854 0.001953c0.01663 1.5564 0.03352 3.092 0.042969 4.6484 0 1.8753-0.63337 4.0318-2.0469 4.916-1.572 0.98366-3.2259 2.1971-4.3652 2.1934-1.6637-0.047622-2.9459-1.0229-4.8359-2.2129-1.336-0.841-1.666-2.988-1.661-4.873zm3.4414 1.0195c-0.43898 0.00011339-0.79482 0.356-0.79492 0.79492 0.00009828 0.43895 0.35596 0.79481 0.79492 0.79492 0.43898-0.00011339 0.79482-0.35604 0.79492-0.79492-0.00009828-0.43899-0.35596-0.79481-0.79492-0.79492zm5.9688 0c-0.43898 0.00011339-0.79483 0.356-0.79492 0.79492 0.0000945 0.43895 0.35592 0.79481 0.79492 0.79492 0.43898-0.00011339 0.79482-0.35604 0.79492-0.79492-0.00009828-0.43899-0.35596-0.79481-0.79492-0.79492zm-3.035 3.669c-0.37814 0.00378-0.67004 0.070579-0.66602 0.14844 0.001999 0.080882 0.32239 0.14686 0.7168 0.14648 0.39441 0.00003777 0.71477-0.065602 0.7168-0.14648 0.003201-0.082016-0.31865-0.14844-0.7168-0.14844-0.017008-0.00011339-0.034-0.00011339-0.050781 0zm2.9551 2.2617c-0.00007561 0.00041575-0.011341 0.001424-0.011719 0.001953 0.00011717 0.00037793 0.011719-0.00041575 0.011719 0zm-0.011719 0.001953c-0.015874-0.053669-1.2268 0.071172-2.7285 0.2832-0.064441 0.007559-0.12896 0.019785-0.19336 0.027344-1.4369 0.2075-2.5416 0.40995-2.5215 0.46094 0.026079 0.052158 1.2485-0.077409 2.7422-0.28906 1.4821-0.21014 2.6733-0.42369 2.7012-0.48242zm3.9434 5.5605c-1.5652 1.4702-4.7177 2.8115-6.8027 2.8438-2.5629-0.002872-5.0208-1.0188-6.8379-2.8262l-0.10938 0.029297c-0.87529 0.31559-1.7272 0.6743-2.582 1.0449v8.9727h-2.652v-7.8242c-0.97219 0.4165-1.9726 0.83023-3.0684 1.2109-2.5451 0.74956-2.5449 2.867-2.5449 4.0195v6.6621h5.6133v-1.791h2.6523v1.791h18.736v-1.791h2.6523v1.791h5.918v-6.6621c0-1.1525 0.00016284-3.2682-2.5449-4.0195-1.2109-0.42077-2.3081-0.88043-3.373-1.3418v7.9551h-2.651v-9.106c-0.795-0.341-1.588-0.669-2.405-0.959zm0.10742 0.58594s0.90056 0.35421 1.4629 0.58203c0.24854 0.10069 0.31641 0.12891 0.31641 0.12891l0.003906 8.4473v3.875h-17.71v-3.873l-0.015-8.305c-0.00012447-0.06226 1.7656-0.72656 1.7656-0.72656 0.29924-0.1146 0.28207-0.12207 0.29688-0.10938 0.65299 0.55982 3.3133 2.9164 7.0469 2.7539 2.9093-0.12663 4.8252-1.3 6.834-2.7734zm5.459 2.3047 2.6328 1.0254c1.2836 0.41857 2.3331 1.0986 2.2559 3.043l0.003906 6.6602h-4.8906zm-25.064 0.126-0.002 6.729v3.873h-4.5854l0.0078-6.631v-0.32031c0.19978-1.0654 0.34344-2.1469 2.2051-2.7461z" transform="matrix(.26458 0 0 .26458 0 284.3)"/>
 </g>
</svg>

<svg width="48" height="48" viewBox="0 0 48 48" fill="none" xmlns="http://www.w3.org/2000/svg">
<path d="M23.5017 4.93164C20.3644 4.93535 17.4853 6.66972 16.0155 9.44138H20.7439C20.9887 8.1104 22.1484 7.14371 23.5017 7.14261C24.8557 7.14275 26.0166 8.10971 26.2615 9.44138H30.9834C29.5144 6.67102 26.6374 4.93684 23.5015 4.93164H23.5017ZM23.5486 5.45311C24.4424 5.45005 24.9301 5.56225 25.9547 5.84178C27.1323 6.26996 27.8497 6.79213 28.607 7.30656C29.1575 7.80601 29.7135 8.30265 30.0816 8.92374L26.5816 8.92765C26.5126 8.58495 26.0696 7.71406 25.5526 7.32417C24.9816 6.82887 24.1177 6.61318 23.3547 6.63278C21.8244 6.78187 21.4641 7.33528 20.9426 7.83396C20.6861 8.15448 20.4668 8.51219 20.3 8.92775L16.9251 8.92384C17.4991 8.26655 18.0751 7.61526 18.699 7.07026C19.443 6.57007 20.147 6.00088 21.293 5.76948C22.145 5.51068 22.974 5.46408 23.549 5.45308L23.5486 5.45311ZM15.3667 11.0309C15.146 11.777 15.0291 12.5498 15.019 13.3278H31.9818C31.9711 12.5498 31.8535 11.7769 31.6322 11.0309H26.0913C25.6549 12.0755 24.6336 12.7557 23.5015 12.7555C22.3708 12.7541 21.3514 12.0743 20.9156 11.0309H15.3667ZM20.5932 11.5407C20.9026 12.1644 21.3506 12.4964 21.808 12.8083H15.5444C15.6075 12.3794 15.65 11.9332 15.7612 11.5427L20.5932 11.5407ZM26.4173 11.5485L31.2493 11.5505C31.3604 11.941 31.401 12.3871 31.4641 12.8161L25.2005 12.8141C25.6579 12.5022 26.1079 12.1722 26.4173 11.5485ZM12.9605 13.6835V14.9198H16.5367V19.8747C16.5367 21.9591 17.0521 24.0291 18.5288 24.9587C20.6188 26.2743 21.6559 27.1395 23.4956 27.1969C24.7554 27.2007 26.3665 26.0619 28.1049 24.9743C29.668 23.9962 30.4662 21.9484 30.4662 19.8747C30.4548 18.223 30.4359 16.5714 30.4193 14.9197H34.0423V13.6834L12.9605 13.6835ZM17.0502 14.9198L29.9041 14.9217C29.9207 16.4781 29.9376 18.0137 29.9471 19.5701C29.9471 21.4453 29.3137 23.6018 27.9002 24.486C26.3282 25.4697 24.6743 26.6831 23.535 26.6794C21.8714 26.6318 20.5892 25.6565 18.6992 24.4665C17.3632 23.6255 17.0332 21.4785 17.0382 19.5936L17.0502 14.9198ZM20.4916 15.9393C20.0526 15.9394 19.6968 16.2953 19.6967 16.7342C19.6968 17.1731 20.0526 17.529 20.4916 17.5291C20.9306 17.529 21.2864 17.1731 21.2865 16.7342C21.2864 16.2952 20.9306 15.9394 20.4916 15.9393ZM26.4603 15.9393C26.0214 15.9394 25.6655 16.2953 25.6654 16.7342C25.6655 17.1731 26.0213 17.529 26.4603 17.5291C26.8993 17.529 27.2551 17.1731 27.2552 16.7342C27.2551 16.2952 26.8993 15.9394 26.4603 15.9393ZM23.4254 19.6082C23.0472 19.612 22.7553 19.6788 22.7594 19.7567C22.7614 19.8375 23.0817 19.9035 23.4761 19.9031C23.8706 19.9032 24.1909 19.8375 24.1929 19.7567C24.1961 19.6746 23.8743 19.6082 23.4761 19.6082C23.4591 19.6081 23.4421 19.6081 23.4254 19.6082ZM26.3804 21.8699C26.3804 21.8703 26.3691 21.8713 26.3687 21.8718C26.3688 21.8722 26.3804 21.8714 26.3804 21.8718V21.8699ZM26.3687 21.8718C26.3528 21.8182 25.1419 21.943 23.6402 22.155C23.5758 22.1626 23.5113 22.1748 23.4469 22.1824C22.01 22.3899 20.9053 22.5923 20.9254 22.6433C20.9515 22.6955 22.1739 22.5659 23.6676 22.3543C25.1497 22.1441 26.3409 21.9306 26.3687 21.8718ZM30.3121 27.4323C28.7469 28.9025 25.5944 30.2437 23.5094 30.276C20.9466 30.2732 18.4887 29.2573 16.6716 27.4499L16.5623 27.4792C15.687 27.7948 14.8351 28.1535 13.9803 28.5241V37.4966H11.3283V29.6725C10.3561 30.089 9.35574 30.5028 8.25996 30.8834C5.71489 31.633 5.71509 33.7504 5.71509 34.9029V41.5649H11.3283V39.7739H13.9806V41.5649H32.7164V39.7739H35.3686V41.5649H41.2865V34.9029C41.2865 33.7504 41.2867 31.6347 38.7417 30.8834C37.5308 30.4627 36.4336 30.003 35.3687 29.5416V37.4966H32.7178V28.3908C31.9228 28.0498 31.1298 27.7218 30.3128 27.4318L30.3121 27.4323ZM30.4195 28.0182C30.4195 28.0182 31.32 28.3724 31.8824 28.6002C32.1309 28.7009 32.1988 28.7291 32.1988 28.7291L32.2027 37.1763V41.0513H14.4929V37.1783L14.4779 28.8734C14.4778 28.8112 16.2435 28.1469 16.2435 28.1469C16.5427 28.0323 16.5255 28.0248 16.5403 28.0375C17.1933 28.5973 19.8536 30.9539 23.5872 30.7914C26.4964 30.6647 28.4123 29.4914 30.4211 28.018L30.4195 28.0182ZM35.8784 30.3229L38.5112 31.3483C39.7948 31.7668 40.8442 32.4469 40.767 34.3912L40.771 41.0513H35.8804L35.8784 30.3229ZM10.8147 30.4489L10.8127 37.1778V41.0507H6.22738L6.23518 34.4198V34.0995C6.43496 33.0341 6.57862 31.9526 8.44025 31.3535L10.8147 30.4489Z" fill="#333333"/>
</svg>
